X:1
T:Nella Predestinatione della Vergine
T:Giovanni Pietro Biandra
T:Source : Madrigaletti a 1, 2 e 3 voci. Libro primo---Venezia---B.Magni (Gardano)---1626. Editor : André Vierendeels (13/03/15).           
T:Notes : Original clefs : F3, F4 Editorial accidentals above the staff
T:Nella Predestinatione della Vergine
T:Aria
C:Giovanni Pietro Biandra
%%score 1 2
L:1/8
Q:1/4=120
M:4/4
K:C
V:1 bass nm="Baritone" snm="Bar"
V:2 bass nm="BC" snm="BC"
V:1
 z2 D,2 F,E, G,F, | E,3 D, D,2 D,2 | F,2 F,G, A,G, _B,A, | G,2 G,2 z2 C2 | C2 B,2 D3 C | B,4 A,4 :: %6
w: Non e- * ra- *|no gl'a- bis- si|quan- do che gli'oc- * chi _|fis- si in|te vi- bro l'e-|ter- no|
w: Pria di _ pu- *|ra fa- tu- ra,|tu'im- ma- cu- la- * ta'e _|pu- ra pre-|des- ti- na- ta|fos- ti|
w: Tu per _ spo- *|sa del Pa- dre|e del tuo Fi- * glio _|Ma- dre e-|ter- na- men- t'e-|let- ta|
w: Se fo- * sti _|sem- pr'a- ma- ta|ne mai d'er- ror _ ma- *|chia- ta fi-|a ven do- ver|che fia|
 z2 G,2 G,F,F,E, | F,2 A,4 G,F, |[M:2/4] E,4 |[M:4/4] D,8 :| %10
w: per far un sem- pi-|ter- no di tua|pro-|le.|
w: e fur- no pre- su-|po- st'i tuoi The-|so-|ri.|
w: fo- sti'e co- si con-|ce- tra nel' i-|de-|a.|
w: de mar- ti- ri lu-|cer- na'il tuo Splen-|do|re.|
V:2
 D,4 _B,,2 G,,2 | A,,3 A,, D,4 | _B,,2 G,,2 F,,2 B,,2 |"^b""^-natural" C,2 B,,2 A,,3 B,, | %4
 C,D, E,2 D,4 | E,4 A,,4 :: F,2 E,2 D,2 C,2 | _B,,2 A,,2 F,,2 G,,2 |[M:2/4] A,,4 |[M:4/4] D,8 :| %10

